!!!OTL: "Zum Abschied" NUN LEB WOHL, MEIN FEINES LIEBCHEN
!!!ARE: Europa, Mitteleuropa, Deutschland, Niederrhein
!!!SCT: Z1152
!!!YEM: Copyright 1995, estate of Helmut Schaffrath.
**kern
*ICvox
*Ivox
*M4/4
*k[b-e-]
*B-:
{4f
4b-
=1
4dd
4dd
4cc
8dd
8cc
=2
4b-
4f}
{4dd
4ee-
=3
4ff
4ff
4ee-
8ff
8ee-
=4
4dd
4r}
{4gg
4gg
=5
4gg
4r
4ff
4ff
=6
4ff
4r}
{4.dd
8ff
=7
8ff
8ee-
8dd
8cc
4b-
8dd
8cc
=8
4b-
4r}
==
!!!AGN: Liebes - Lied, Abschieds - Lied
!!!ONB: ESAC (Essen Associative Code) Database: ZUCCAL
!!!AMT: simple quadruple
!!!AIN: vox
!!!EED: Helmut Schaffrath
!!!EEV: 1.0
*-
